X:21
T:Sunshine
I:last changed 14/2/2016
F:http://www.campin.me.uk/Music/Edinbal.abc
C:Gregory Jolivet
M:C|
L:1/8
%Q:1/2=90
P:ABBA
K:G
P:A
Bc| d2gf g3d-|dedc B2G2|   A2gf g3 c-|   cdcB A2Bc |
    d2gf g3d-|dedc B2G2|[1 A2gf g3 c-|   cdcB A2  :|\
                        [2 A2gf ga2f-|   f6       ||
P:B
z2|:b2ag d3e-|edcB A2AB|   cedc d2Bd |[1 cBAc B2G2:|\
                                      [2 cBAB G2  || 

